;FLAVOR:Marlin
;TIME:2922
;Filament used: 2.48429m
;Layer height: 0.2
;Generated with Cura_SteamEngine 3.1.0
M104 S210
M109 S210
M82 ; absolute extrusion mode
G21 ;metric values
G90 ;absolute positioning
M82 ;set extruder to absolute mode
M107 ;start with the fan off
G28 X0 Y0 ;move X/Y to min endstops
G28 Z0 ;move Z to min endstops
G1 Z15.0 F9000 ;move the platform down 15mm
G92 E0 ;zero the extruded length
G1 F200 E3 ;extrude 3mm of feed stock
G92 E0 ;zero the extruded length again
G1 F9000
;Put printing message on LCD screen
M117 Printing...
;LAYER_COUNT:30
;LAYER:0
M107
G0 F3600 X63.915 Y86.037 Z0.3
;TYPE:SKIRT
G1 F1800 X64.383 Y85.776 E0.03475
G1 X64.636 Y85.67 E0.05255
G1 X65.39 Y85.388 E0.10476
G1 X65.843 Y85.252 E0.13543
G1 X66.729 Y85.048 E0.1944
G1 X67.216 Y84.97 E0.22639
G1 X69.313 Y84.782 E0.36294
G1 X69.888 Y84.777 E0.40023
G1 X71.755 Y84.909 E0.52162
G1 X72.054 Y84.943 E0.54114
G1 X76.25 Y85.596 E0.81656
G1 X81.683 Y86.178 E1.17094
G1 X87.12 Y86.451 E1.52402
G1 X92.58 Y86.417 E1.87814
G1 X98.031 Y86.074 E2.23238
G1 X103.457 Y85.423 E2.58682
G1 X108.346 Y84.611 E2.90825
G1 X108.809 Y84.564 E2.93843
G1 X110.6 Y84.501 E3.05466
G1 X111.115 Y84.52 E3.08809
G1 X114.834 Y84.923 E3.3307
G1 X120.328 Y85.284 E3.6878
G1 X122.954 Y85.369 E3.8582
G1 X123.525 Y85.433 E3.89547
G1 X128.045 Y86.313 E4.19413
G1 X133.467 Y87.099 E4.54946
G1 X140.115 Y87.709 E4.98244
G1 X140.745 Y87.824 E5.02398
G1 X141.603 Y88.061 E5.08171
G1 X142.178 Y88.274 E5.12148
G1 X143.739 Y89.009 E5.23338
G1 X144.279 Y89.323 E5.2739
G1 X145.918 Y90.478 E5.40394
G1 X146.353 Y90.84 E5.44064
G1 X146.999 Y91.468 E5.49908
G1 X147.318 Y91.821 E5.52993
G1 X148.08 Y92.788 E5.60978
G1 X148.486 Y93.434 E5.65927
G1 X149.067 Y94.622 E5.74504
G1 X149.335 Y95.369 E5.79651
G1 X149.455 Y95.872 E5.83005
G1 X149.54 Y96.401 E5.8648
G1 X149.553 Y96.742 E5.88693
G1 X149.542 Y97.863 E5.95964
G1 X149.508 Y98.324 E5.98962
G1 X148.79 Y103.49 E6.32789
G1 X148.342 Y107.857 E6.61261
G1 X148.217 Y108.498 E6.65497
G1 X148.002 Y109.235 E6.70476
G1 X147.814 Y109.737 E6.73953
G1 X147.678 Y110.002 E6.75885
G1 X146.968 Y111.255 E6.85225
G1 X146.67 Y111.7 E6.88699
G1 X146.485 Y111.918 E6.90553
G1 X145.782 Y112.682 E6.97287
G1 X145.264 Y113.146 E7.01797
G1 X144.413 Y113.771 E7.08645
G1 X143.737 Y114.162 E7.1371
G1 X142.488 Y114.714 E7.22567
G1 X141.77 Y114.945 E7.27458
G1 X140.58 Y115.194 E7.35344
G1 X140.137 Y115.258 E7.38247
G1 X137.748 Y115.453 E7.53793
G1 X132.283 Y116.107 E7.8949
G1 X126.846 Y117.072 E8.25304
G1 X124.347 Y117.551 E8.41807
G1 X123.621 Y117.615 E8.46534
G1 X120.536 Y117.574 E8.66544
G1 X115.072 Y117.74 E9.01998
G1 X112.353 Y117.938 E9.1968
G1 X108.428 Y118.335 E9.45266
G1 X107.891 Y118.349 E9.4875
G1 X107.51 Y118.31 E9.51234
G1 X103.343 Y117.66 E9.78587
G1 X97.906 Y117.045 E10.14075
G1 X92.468 Y116.74 E10.49399
G1 X87.008 Y116.744 E10.84812
G1 X81.572 Y117.055 E11.20126
G1 X74.46 Y117.895 E11.66573
G1 X74.073 Y117.92 E11.69088
G1 X73.052 Y117.93 E11.7571
G1 X72.586 Y117.904 E11.78737
G1 X71.125 Y117.728 E11.88281
G1 X70.618 Y117.63 E11.9163
G1 X68.431 Y117.04 E12.06322
G1 X67.953 Y116.874 E12.09604
G1 X65.579 Y115.858 E12.26352
G1 X65.188 Y115.662 E12.29188
G1 X63.906 Y114.918 E12.38802
G1 X63.559 Y114.688 E12.41502
G1 X61.453 Y113.115 E12.5855
G1 X56.878 Y109.987 E12.94495
G1 X54.121 Y108.255 E13.15612
G1 X53.671 Y107.921 E13.19246
G1 X52.682 Y107.059 E13.27755
G1 X52.321 Y106.696 E13.31075
G1 X51.963 Y106.281 E13.3463
G1 X51.591 Y105.764 E13.38761
G1 X51.021 Y104.801 E13.46019
G1 X50.783 Y104.32 E13.495
G1 X50.684 Y104.046 E13.51389
G1 X50.471 Y103.368 E13.55998
G1 X50.321 Y102.619 E13.60953
G1 X50.222 Y101.545 E13.67948
G1 X50.226 Y100.846 E13.72481
G1 X50.321 Y99.924 E13.78493
G1 X50.458 Y99.245 E13.82985
G1 X50.731 Y98.348 E13.89067
G1 X50.925 Y97.848 E13.92545
G1 X51.082 Y97.553 E13.94712
G1 X51.601 Y96.682 E14.01288
G1 X52.074 Y96.056 E14.06377
G1 X53.023 Y95.049 E14.15351
G1 X53.482 Y94.639 E14.19343
G1 X55.847 Y92.864 E14.38521
G1 X60.121 Y89.394 E14.74227
G1 X63.49 Y86.365 E15.0361
G1 X63.915 Y86.037 E15.07092
G0 F3600 X64.159 Y86.355
G1 F1800 X64.776 Y86.045 E15.11571
G1 X65.53 Y85.763 E15.16792
G1 X65.933 Y85.642 E15.19521
G1 X66.819 Y85.438 E15.25417
G1 X67.251 Y85.369 E15.28255
G1 X69.348 Y85.181 E15.4191
G1 X69.86 Y85.176 E15.45231
G1 X71.727 Y85.308 E15.5737
G1 X71.993 Y85.338 E15.59106
G1 X76.19 Y85.991 E15.86654
G1 X81.655 Y86.577 E16.22302
G1 X87.12 Y86.851 E16.57791
G1 X92.59 Y86.817 E16.93268
G1 X98.069 Y86.472 E17.28874
G1 X103.505 Y85.82 E17.64383
G1 X108.412 Y85.005 E17.96644
G1 X108.824 Y84.964 E17.9933
G1 X110.615 Y84.901 E18.10953
G1 X111.072 Y84.918 E18.13919
G1 X114.788 Y85.321 E18.38161
G1 X120.32 Y85.684 E18.74117
G1 X122.941 Y85.769 E18.91125
G1 X123.448 Y85.826 E18.94434
G1 X127.973 Y86.706 E19.24332
G1 X133.41 Y87.495 E19.59964
G1 X140.078 Y88.107 E20.03393
G1 X140.638 Y88.21 E20.07086
G1 X141.496 Y88.447 E20.12859
G1 X142.007 Y88.636 E20.16393
G1 X143.568 Y89.371 E20.27583
G1 X144.048 Y89.65 E20.31184
G1 X145.687 Y90.805 E20.44188
G1 X146.075 Y91.127 E20.47458
G1 X146.721 Y91.755 E20.53302
G1 X147.003 Y92.068 E20.56034
G1 X147.765 Y93.035 E20.64019
G1 X148.127 Y93.61 E20.68426
G1 X148.708 Y94.798 E20.77003
G1 X148.946 Y95.461 E20.81572
G1 X149.066 Y95.964 E20.84926
G1 X149.144 Y96.464 E20.88208
G1 X149.153 Y96.738 E20.89986
G1 X149.142 Y97.859 E20.97257
G1 X149.112 Y98.269 E20.99923
G1 X148.392 Y103.451 E21.33855
G1 X147.944 Y107.816 E21.62314
G1 X147.833 Y108.386 E21.6608
G1 X147.618 Y109.123 E21.71059
G1 X147.33 Y109.805 E21.75861
G1 X146.62 Y111.058 E21.85201
G1 X146.191 Y111.647 E21.89927
G1 X145.488 Y112.411 E21.96661
G1 X145.027 Y112.823 E22.00671
G1 X144.176 Y113.448 E22.07519
G1 X143.576 Y113.796 E22.12017
G1 X142.327 Y114.348 E22.20874
G1 X141.688 Y114.553 E22.25226
G1 X140.498 Y114.802 E22.33112
G1 X140.104 Y114.859 E22.35693
G1 X137.694 Y115.056 E22.51376
G1 X132.237 Y115.709 E22.87021
G1 X126.765 Y116.68 E23.23066
G1 X124.271 Y117.158 E23.39535
G1 X123.626 Y117.215 E23.43735
G1 X120.552 Y117.174 E23.63674
G1 X115.031 Y117.342 E23.99498
G1 X112.317 Y117.539 E24.17147
G1 X108.387 Y117.937 E24.42766
G1 X107.882 Y117.948 E24.46042
G1 X107.572 Y117.915 E24.48064
G1 X103.403 Y117.264 E24.75431
G1 X97.937 Y116.647 E25.11107
G1 X92.473 Y116.34 E25.46601
G1 X87.003 Y116.344 E25.82078
G1 X81.535 Y116.657 E26.176
G1 X74.413 Y117.498 E26.64112
G1 X74.069 Y117.52 E26.66348
G1 X73.048 Y117.53 E26.7297
G1 X72.634 Y117.507 E26.75659
G1 X71.173 Y117.331 E26.85203
G1 X70.723 Y117.244 E26.88176
G1 X68.536 Y116.654 E27.02867
G1 X68.11 Y116.506 E27.05792
G1 X65.736 Y115.49 E27.2254
G1 X65.389 Y115.316 E27.25058
G1 X64.107 Y114.572 E27.34671
G1 X63.798 Y114.368 E27.37073
G1 X61.675 Y112.782 E27.5426
G1 X57.107 Y109.659 E27.90149
G1 X54.334 Y107.917 E28.11388
G1 X53.933 Y107.619 E28.14628
G1 X52.944 Y106.757 E28.23137
G1 X52.624 Y106.435 E28.26081
G1 X52.266 Y106.02 E28.29636
G1 X51.935 Y105.56 E28.33312
G1 X51.365 Y104.597 E28.40569
G1 X51.066 Y103.926 E28.45334
G1 X50.853 Y103.248 E28.49943
G1 X50.72 Y102.583 E28.54341
G1 X50.621 Y101.509 E28.61337
G1 X50.624 Y100.887 E28.65371
G1 X50.719 Y99.965 E28.71382
G1 X50.841 Y99.361 E28.75379
G1 X51.114 Y98.464 E28.8146
G1 X51.299 Y97.994 E28.84736
G1 X51.426 Y97.758 E28.86474
G1 X51.945 Y96.887 E28.9305
G1 X52.365 Y96.33 E28.97574
G1 X53.314 Y95.323 E29.06549
G1 X53.722 Y94.959 E29.10095
G1 X56.099 Y93.175 E29.29371
G1 X60.378 Y89.701 E29.65118
G1 X63.758 Y86.662 E29.94597
G1 X64.159 Y86.355 E29.97873
G1 F1500 E25.47873
G0 F3600 X65.545 Y88.467
G0 X66.274 Y89.529
G0 X70.328 Y93.764
G0 X70.389 Y93.842
;TYPE:WALL-INNER
G1 F1500 E29.97873
G1 F1800 X70.2 Y94.096 E29.99926
G1 X70.114 Y94.327 E30.01525
G1 X70.065 Y94.536 E30.02917
G1 X70.034 Y94.74 E30.04256
G1 X70.006 Y95.119 E30.0672
G1 X70.007 Y95.784 E30.11033
G1 X70.063 Y96.798 E30.1762
G1 X70.091 Y97.064 E30.19355
G1 X70.153 Y97.42 E30.21698
G1 X70.226 Y97.646 E30.23239
G1 X70.36 Y97.885 E30.25016
G1 X70.685 Y98.157 E30.27764
G1 X70.996 Y98.361 E30.30177
G1 X71.338 Y98.537 E30.32671
G1 X71.616 Y98.656 E30.34633
G1 X71.811 Y98.725 E30.35974
G1 X72.002 Y98.782 E30.37267
G1 X72.193 Y98.827 E30.3854
G1 X72.384 Y98.86 E30.39797
G1 X72.578 Y98.881 E30.41062
G1 X72.77 Y98.887 E30.42308
G1 X72.969 Y98.881 E30.43599
G1 X73.169 Y98.859 E30.44904
G1 X73.361 Y98.822 E30.46173
G1 X73.551 Y98.772 E30.47447
G1 X73.74 Y98.702 E30.48754
G1 X73.917 Y98.617 E30.50027
G1 X74.106 Y98.508 E30.51443
G1 X74.295 Y98.354 E30.53024
G1 X74.454 Y98.165 E30.54626
G1 X74.579 Y97.948 E30.5625
G1 X74.658 Y97.719 E30.57821
G1 X74.705 Y97.486 E30.59363
G1 X74.72 Y97.242 E30.60948
G1 X74.709 Y97.024 E30.62364
G1 X74.678 Y96.81 E30.63766
G1 X74.627 Y96.6 E30.65168
G1 X74.557 Y96.39 E30.66603
G1 X74.467 Y96.185 E30.68055
G1 X74.363 Y95.988 E30.695
G1 X74.239 Y95.787 E30.71032
G1 X73.986 Y95.442 E30.73807
G1 X73.831 Y95.263 E30.75342
G1 X73.524 Y94.957 E30.78154
G1 X73.344 Y94.802 E30.79694
G1 X72.994 Y94.539 E30.82534
G1 X72.623 Y94.3 E30.85396
G1 X72.239 Y94.095 E30.88219
G1 X72.031 Y93.998 E30.89708
G1 X71.823 Y93.914 E30.91163
G1 X71.622 Y93.846 E30.92539
G1 X71.419 Y93.79 E30.93905
G1 X71.215 Y93.749 E30.95254
G1 X71.014 Y93.724 E30.96568
G1 X70.703 Y93.709 E30.98587
G1 X70.389 Y93.842 E31.00799
G0 F3600 X70.328 Y93.764
G0 X70.026 Y94.529
G0 X69.98 Y95.546
G0 X70.283 Y102.37
G0 X70.341 Y102.45
G1 F1800 X70.126 Y102.77 E31.03299
G1 X70.071 Y102.94 E31.04458
G1 X70.024 Y103.182 E31.06057
G1 X69.991 Y103.509 E31.08189
G1 X69.985 Y103.712 E31.09506
G1 X69.995 Y104.494 E31.14578
G1 X70.018 Y105.077 E31.18362
G1 X70.059 Y105.71 E31.22476
G1 X70.133 Y106.429 E31.27164
G1 X70.22 Y107.001 E31.30917
G1 X70.287 Y107.291 E31.32847
G1 X70.368 Y107.532 E31.34496
G1 X70.445 Y107.678 E31.35567
G1 X70.545 Y107.808 E31.3663
G1 X70.731 Y107.969 E31.38226
G1 X71.039 Y108.187 E31.40673
G1 X71.376 Y108.373 E31.4317
G1 X71.569 Y108.46 E31.44543
G1 X71.851 Y108.566 E31.46497
G1 X72.211 Y108.667 E31.48922
G1 X72.408 Y108.706 E31.50224
G1 X72.597 Y108.729 E31.51459
G1 X72.793 Y108.742 E31.52733
G1 X73.188 Y108.728 E31.55296
G1 X73.41 Y108.692 E31.56755
G1 X73.613 Y108.637 E31.58119
G1 X73.807 Y108.565 E31.59461
G1 X73.995 Y108.469 E31.6083
G1 X74.175 Y108.348 E31.62237
G1 X74.343 Y108.197 E31.63702
G1 X74.487 Y108.018 E31.65192
G1 X74.603 Y107.815 E31.66708
G1 X74.683 Y107.601 E31.6819
G1 X74.736 Y107.379 E31.69671
G1 X74.76 Y107.145 E31.71196
G1 X74.76 Y106.92 E31.72655
G1 X74.742 Y106.694 E31.74126
G1 X74.703 Y106.466 E31.75626
G1 X74.65 Y106.239 E31.77138
G1 X74.578 Y106.002 E31.78744
G1 X74.392 Y105.528 E31.82047
G1 X74.159 Y105.057 E31.85455
G1 X73.89 Y104.604 E31.88872
G1 X73.592 Y104.176 E31.92254
G1 X73.425 Y103.96 E31.94025
G1 X73.25 Y103.755 E31.95773
G1 X73.071 Y103.562 E31.97481
G1 X72.885 Y103.379 E31.99173
G1 X72.69 Y103.205 E32.00868
G1 X72.491 Y103.042 E32.02536
G1 X72.279 Y102.885 E32.04247
G1 X72.057 Y102.743 E32.05956
G1 X71.832 Y102.621 E32.07616
G1 X71.6 Y102.518 E32.09263
G1 X71.364 Y102.44 E32.10875
G1 X71.125 Y102.386 E32.12464
G1 X70.887 Y102.358 E32.14018
G1 X70.679 Y102.353 E32.15368
G1 X70.341 Y102.45 E32.17648
G0 F3600 X70.283 Y102.37
G0 X65.52 Y102.659
G0 X65.439 Y102.602
G1 F1800 X65.429 Y101.934 E32.21981
G1 X65.438 Y101.593 E32.24194
G1 X65.44 Y99.469 E32.37969
G1 X64.659 Y99.196 E32.43335
G1 X64.23 Y99.076 E32.46224
G1 X63.789 Y98.976 E32.49157
G1 X63.329 Y98.894 E32.52188
G1 X62.876 Y98.836 E32.5515
G1 X62.444 Y98.798 E32.57962
G1 X62.031 Y98.782 E32.60643
G1 X61.492 Y98.79 E32.64139
G1 X60.817 Y98.834 E32.68526
G1 X60.232 Y98.899 E32.72344
G1 X59.766 Y98.976 E32.75407
G1 X59.321 Y99.077 E32.78367
G1 X58.908 Y99.198 E32.81158
G1 X58.689 Y99.275 E32.82664
G1 X58.314 Y99.443 E32.85329
G1 X58.119 Y99.55 E32.86771
G1 X57.789 Y99.772 E32.89351
G1 X57.568 Y99.976 E32.91301
G1 X57.425 Y100.152 E32.92772
G1 X57.312 Y100.342 E32.94206
G1 X57.229 Y100.547 E32.9564
G1 X57.18 Y100.76 E32.97058
G1 X57.161 Y100.98 E32.9849
G1 X57.176 Y101.201 E32.99927
G1 X57.229 Y101.418 E33.01375
G1 X57.315 Y101.621 E33.02805
G1 X57.43 Y101.806 E33.04218
G1 X57.565 Y101.968 E33.05586
G1 X57.664 Y102.064 E33.0648
G1 X57.826 Y102.199 E33.07848
G1 X58.159 Y102.419 E33.10436
G1 X58.525 Y102.61 E33.13114
G1 X58.742 Y102.703 E33.14645
G1 X59.157 Y102.852 E33.17505
G1 X59.597 Y102.983 E33.20483
G1 X60.06 Y103.093 E33.23569
G1 X60.54 Y103.18 E33.26733
G1 X61.021 Y103.248 E33.29884
G1 X61.486 Y103.291 E33.32912
G1 X61.93 Y103.309 E33.35794
G1 X62.311 Y103.303 E33.38266
G1 X62.701 Y103.274 E33.40802
G1 X63.225 Y103.209 E33.44227
G1 X63.671 Y103.13 E33.47164
G1 X64.105 Y103.034 E33.50047
G1 X64.533 Y102.917 E33.52925
G1 X65.439 Y102.602 E33.59146
G0 F3600 X65.52 Y102.659
G0 X70.889 Y102.319
G0 X71.299 Y102.41
G0 X77.934 Y104.625
G0 X77.958 Y104.529
G1 F1800 X78.831 Y104.133 E33.65363
G1 X78.646 Y103.232 E33.71329
G1 X78.549 Y102.677 E33.74983
G1 X78.474 Y102.136 E33.78525
G1 X78.425 Y101.618 E33.819
G1 X78.394 Y101.107 E33.8522
G1 X78.384 Y100.61 E33.88444
G1 X78.394 Y100.007 E33.92356
G1 X77.728 Y99.665 E33.97211
G1 X77.149 Y100.101 E34.01912
G1 X76.947 Y100.233 E34.03477
G1 X76.734 Y100.354 E34.05066
G1 X76.518 Y100.458 E34.06621
G1 X76.271 Y100.558 E34.08349
G1 X76.046 Y100.635 E34.09892
G1 X75.765 Y100.715 E34.11787
G1 X75.096 Y100.864 E34.16232
G1 X74.947 Y101.634 E34.21318
G1 X75.545 Y102.05 E34.26043
G1 X75.828 Y102.259 E34.28325
G1 X76.067 Y102.45 E34.30309
G1 X76.316 Y102.663 E34.32434
G1 X76.555 Y102.88 E34.34528
G1 X76.785 Y103.105 E34.36615
G1 X77.02 Y103.352 E34.38826
G1 X77.227 Y103.585 E34.40847
G1 X77.436 Y103.841 E34.42991
G1 X77.958 Y104.529 E34.48592
G0 F3600 X77.934 Y104.625
G0 X82.475 Y102.183
G0 X82.54 Y102.258
G1 F1800 X82.566 Y102.535 E34.50396
G1 X82.658 Y103.477 E34.56535
G1 X82.726 Y103.899 E34.59307
G1 X82.825 Y104.338 E34.62226
G1 X82.956 Y104.79 E34.65278
G1 X83.12 Y105.231 E34.6833
G1 X83.314 Y105.648 E34.71313
G1 X83.426 Y105.86 E34.72868
G1 X83.549 Y106.067 E34.74429
G1 X83.683 Y106.264 E34.75975
G1 X83.827 Y106.452 E34.77511
G1 X83.984 Y106.631 E34.79055
G1 X84.148 Y106.795 E34.80559
G1 X84.323 Y106.952 E34.82084
G1 X84.519 Y107.105 E34.83697
G1 X84.741 Y107.241 E34.85385
G1 X84.975 Y107.351 E34.87062
G1 X85.222 Y107.438 E34.88761
G1 X85.481 Y107.498 E34.90485
G1 X85.745 Y107.533 E34.92212
G1 X86.028 Y107.546 E34.94049
G1 X86.262 Y107.528 E34.95572
G1 X86.499 Y107.47 E34.97154
G1 X86.728 Y107.367 E34.98783
G1 X86.928 Y107.221 E35.00389
G1 X87.098 Y107.046 E35.01971
G1 X87.234 Y106.847 E35.03534
G1 X87.334 Y106.65 E35.04967
G1 X87.415 Y106.461 E35.06301
G1 X87.522 Y106.119 E35.08625
G1 X87.561 Y105.927 E35.09896
G1 X87.584 Y105.739 E35.11124
G1 X87.59 Y105.551 E35.12344
G1 X87.578 Y105.308 E35.13922
G1 X87.538 Y105.06 E35.15551
G1 X87.467 Y104.822 E35.17162
G1 X87.37 Y104.596 E35.18757
G1 X87.246 Y104.381 E35.20367
G1 X87.095 Y104.183 E35.21982
G1 X86.929 Y104.005 E35.2356
G1 X86.61 Y103.72 E35.26335
G1 X86.425 Y103.58 E35.27839
G1 X86.237 Y103.454 E35.29307
G1 X86.043 Y103.339 E35.3077
G1 X85.838 Y103.23 E35.32276
G1 X85.439 Y103.049 E35.35117
G1 X85.026 Y102.891 E35.37985
G1 X84.6 Y102.758 E35.4088
G1 X83.833 Y102.563 E35.46013
G1 X82.811 Y102.322 E35.52823
G1 X82.54 Y102.258 E35.53895
G0 F3600 X82.475 Y102.183
G0 X85.039 Y102.854
G0 X86.026 Y103.313
G0 X90.842 Y106.441
G0 X90.886 Y106.352
G1 F1800 X91.141 Y106.208 E35.55794
G1 X91.888 Y105.785 E35.61362
G1 X92.008 Y105.737 E35.622
G1 X92.146 Y105.699 E35.63128
G1 X92.29 Y105.678 E35.64072
G1 X92.462 Y105.67 E35.65189
G1 X92.614 Y105.676 E35.66175
G1 X92.774 Y105.694 E35.6722
G1 X93.061 Y105.758 E35.69127
G1 X93.183 Y105.801 E35.69966
G1 X93.331 Y105.867 E35.71017
G1 X93.624 Y106.028 E35.73185
G1 X94.121 Y106.326 E35.76944
G1 X94.604 Y106.638 E35.80673
G1 X94.969 Y106.855 E35.83427
G1 X95.347 Y107.062 E35.86222
G1 X95.642 Y107.206 E35.88351
G1 X95.87 Y107.303 E35.89958
G1 X96.119 Y107.386 E35.9166
G1 X96.375 Y107.452 E35.93375
G1 X96.642 Y107.5 E35.95135
G1 X96.915 Y107.531 E35.96917
G1 X97.202 Y107.547 E35.98781
G1 X97.539 Y107.544 E36.00967
G1 X97.901 Y107.505 E36.03328
